svgs/solid/monument.svg

<svg xmlns="http://www.w3.org/2000/svg" viewBox="0 0 384 512"><!--! Font Awesome Pro 6.0.0-alpha3 by @fontawesome - https://fontawesome.com License - https://fontawesome.com/license (Commercial License) --><path d="M289.1 100.7c-.75-7.375-4-14.25-9.25-19.5l-76.63-76.56c-6.25-6.25-16.34-6.25-22.59 0L104.1 81.21c-5.25 5.25-8.5 12.13-9.25 19.5L64 415.1h256L289.1 100.7zM240 307.2c0 6.377-6.375 12.75-12.75 12.75h-70.5C150.4 319.1 144 313.6 144 307.2V268.7c0-6.377 6.375-12.75 12.75-12.75h70.5C233.6 255.1 240 262.3 240 268.7V307.2zM368 447.1h-352c-8.875 0-16 7.125-16 16v32C0 504.9 7.125 512 16 512h352c8.875 0 16-7.125 16-16v-32C384 455.1 376.9 447.1 368 447.1z"/></svg>

<svg xmlns="http://www.w3.org/2000/svg" viewBox="0 0 384 512"><!-- Font Awesome Pro 6.0.0-alpha2 by @fontawesome - https://fontawesome.com License - https://fontawesome.com/license (Commercial License) --><path d="M289.125 100.699C288.375 93.324 285.125 86.447 279.875 81.197L203.25 4.688C197 -1.562 186.875 -1.562 180.625 4.688L104.125 81.197C98.875 86.447 95.625 93.324 94.875 100.699L64 415.988H320L289.125 100.699ZM240 307.225C240 313.602 233.625 319.977 227.25 319.977H156.75C150.375 319.977 144 313.602 144 307.225V268.721C144 262.344 150.375 255.969 156.75 255.969H227.25C233.625 255.969 240 262.344 240 268.721V307.225ZM368 447.992H16C7.125 447.992 0 455.117 0 463.994V495.998C0 504.875 7.125 512 16 512H368C376.875 512 384 504.875 384 495.998V463.994C384 455.117 376.875 447.992 368 447.992Z"/></svg>
